X: 829
T: Palm Sunday
N:"Collected by F.O'Neill"
B:O'Neill's 829
Z:Transcribed by Dan G. Petersen, dangp@post6.tele.dk
M:6/8
L:1/8
K:Am
B|AGE G2E|G2E G2B|A2B c2d|e2d e^fg|
e3 dBA|BAG Bcd|edc BAG|B2A A2:|
c|~a^ga e^fg|~a^ga b=ge|~g^fg g=fe|dBG GBd|
e^fg ded|BAG Bcd|edc BAG|B2A A2:|


